assets/svg/x_icon.svg

<svg fill="none" height="12" viewBox="0 0 12 12" width="12" xmlns="http://www.w3.org/2000/svg"><path d="m.97034.97034c.06967-.069845.15243-.125259.24355-.163069.09112-.037809.1888-.057271.28745-.057271s.19633.019462.28745.057271c.09112.03781.17388.093224.24355.163069l3.969 3.9705 3.969-3.9705c.06976-.069732.15256-.125046.24366-.162785.0911-.037738.1887-.057162.2873-.057162.0987 0 .1963.019424.2874.057162.0911.037739.1739.093053.2436.162785.0698.06973.1251.15252.1628.24362.0378.09111.0572.18876.0572.28738s-.0194.19627-.0572.28738c-.0377.09111-.093.17389-.1628.24362l-3.97046 3.969 3.97046 3.969c.0698.06976.1251.15256.1628.24366.0378.0911.0572.1887.0572.2873 0 .0987-.0194.1963-.0572.2874-.0377.0911-.093.1739-.1628.2436-.0697.0698-.1525.1251-.2436.1628-.0911.0378-.1887.0572-.2874.0572-.0986 0-.1962-.0194-.2873-.0572-.0911-.0377-.1739-.093-.24366-.1628l-3.969-3.97046-3.969 3.97046c-.06973.0698-.15251.1251-.24362.1628-.09111.0378-.18876.0572-.28738.0572s-.19627-.0194-.28738-.0572c-.0911-.0377-.17389-.093-.24362-.1628-.069732-.0697-.125046-.1525-.162785-.2436-.037738-.0911-.057162-.1887-.057162-.2874 0-.0986.019424-.1962.057162-.2873.037739-.0911.093053-.1739.162785-.24366l3.9705-3.969-3.9705-3.969c-.069845-.06967-.125259-.15243-.163069-.24355-.037809-.09112-.057271-.1888-.057271-.28745s.019462-.19633.057271-.28745c.03781-.09112.093224-.17388.163069-.24355z" fill="#101820"/></svg>

<svg width="12" height="12" viewBox="0 0 12 12" fill="none" xmlns="http://www.w3.org/2000/svg">
<path d="M0.97034 0.97034C1.04001 0.900495 1.12277 0.845081 1.21389 0.807271C1.30501 0.769462 1.40269 0.75 1.50134 0.75C1.59999 0.75 1.69767 0.769462 1.78879 0.807271C1.87991 0.845081 1.96267 0.900495 2.03234 0.97034L6.00134 4.94084L9.97034 0.97034C10.0401 0.900608 10.1229 0.845294 10.214 0.807555C10.3051 0.769817 10.4027 0.750393 10.5013 0.750393C10.6 0.750393 10.6976 0.769817 10.7887 0.807555C10.8798 0.845294 10.9626 0.900608 11.0323 0.97034C11.1021 1.04007 11.1574 1.12286 11.1951 1.21396C11.2329 1.30507 11.2523 1.40272 11.2523 1.50134C11.2523 1.59996 11.2329 1.69761 11.1951 1.78872C11.1574 1.87983 11.1021 1.96261 11.0323 2.03234L7.06184 6.00134L11.0323 9.97034C11.1021 10.0401 11.1574 10.1229 11.1951 10.214C11.2329 10.3051 11.2523 10.4027 11.2523 10.5013C11.2523 10.6 11.2329 10.6976 11.1951 10.7887C11.1574 10.8798 11.1021 10.9626 11.0323 11.0323C10.9626 11.1021 10.8798 11.1574 10.7887 11.1951C10.6976 11.2329 10.6 11.2523 10.5013 11.2523C10.4027 11.2523 10.3051 11.2329 10.214 11.1951C10.1229 11.1574 10.0401 11.1021 9.97034 11.0323L6.00134 7.06184L2.03234 11.0323C1.96261 11.1021 1.87983 11.1574 1.78872 11.1951C1.69761 11.2329 1.59996 11.2523 1.50134 11.2523C1.40272 11.2523 1.30507 11.2329 1.21396 11.1951C1.12286 11.1574 1.04007 11.1021 0.97034 11.0323C0.900608 10.9626 0.845294 10.8798 0.807555 10.7887C0.769817 10.6976 0.750393 10.6 0.750393 10.5013C0.750393 10.4027 0.769817 10.3051 0.807555 10.214C0.845294 10.1229 0.900608 10.0401 0.97034 9.97034L4.94084 6.00134L0.97034 2.03234C0.900495 1.96267 0.845081 1.87991 0.807271 1.78879C0.769462 1.69767 0.75 1.59999 0.75 1.50134C0.75 1.40269 0.769462 1.30501 0.807271 1.21389C0.845081 1.12277 0.900495 1.04001 0.97034 0.97034Z" fill="#101820"/>
</svg>
